app/assets/images/slides/workshop/MVC-Process.svg

<?xml version="1.0" encoding="UTF-8" standalone="no"?>
<!-- Created with Inkscape (http://www.inkscape.org/) -->
<svg
   xmlns:dc="http://purl.org/dc/elements/1.1/"
   xmlns:cc="http://creativecommons.org/ns#"
   xmlns:rdf="http://www.w3.org/1999/02/22-rdf-syntax-ns#"
   xmlns:svg="http://www.w3.org/2000/svg"
   xmlns="http://www.w3.org/2000/svg"
   xmlns:sodipodi="http://sodipodi.sourceforge.net/DTD/sodipodi-0.dtd"
   xmlns:inkscape="http://www.inkscape.org/namespaces/inkscape"
   width="500"
   height="550"
   id="svg2"
   sodipodi:version="0.32"
   inkscape:version="0.46"
   version="1.0"
   sodipodi:docname="mvc.svg"
   inkscape:output_extension="org.inkscape.output.svg.inkscape"
   inkscape:export-filename="/Users/regis/Pictures/SVG/MVC.png"
   inkscape:export-xdpi="90"
   inkscape:export-ydpi="90">
  <defs
     id="defs4">
    <marker
       inkscape:stockid="Arrow2Mstart"
       orient="auto"
       refY="0"
       refX="0"
       id="Arrow2Mstart"
       style="overflow:visible">
      <path
         id="path3232"
         style="font-size:12px;fill-rule:evenodd;stroke-width:0.625;stroke-linejoin:round"
         d="M 8.7185878,4.0337352 L -2.2072895,0.016013256 L 8.7185884,-4.0017078 C 6.97309,-1.6296469 6.9831476,1.6157441 8.7185878,4.0337352 z"
         transform="scale(0.6,0.6)" />
    </marker>
    <marker
       inkscape:stockid="Arrow2Mend"
       orient="auto"
       refY="0"
       refX="0"
       id="Arrow2Mend"
       style="overflow:visible">
      <path
         id="path3235"
         style="font-size:12px;fill-rule:evenodd;stroke-width:0.625;stroke-linejoin:round"
         d="M 8.7185878,4.0337352 L -2.2072895,0.016013256 L 8.7185884,-4.0017078 C 6.97309,-1.6296469 6.9831476,1.6157441 8.7185878,4.0337352 z"
         transform="scale(-0.6,-0.6)" />
    </marker>
    <marker
       inkscape:stockid="Arrow1Send"
       orient="auto"
       refY="0"
       refX="0"
       id="Arrow1Send"
       style="overflow:visible">
      <path
         id="path3223"
         d="M 0,0 L 5,-5 L -12.5,0 L 5,5 L 0,0 z"
         style="fill-rule:evenodd;stroke:#000000;stroke-width:1pt;marker-start:none"
         transform="matrix(-0.2,0,0,-0.2,-1.2,0)" />
    </marker>
    <marker
       inkscape:stockid="Arrow1Lend"
       orient="auto"
       refY="0"
       refX="0"
       id="Arrow1Lend"
       style="overflow:visible">
      <path
         id="path3211"
         d="M 0,0 L 5,-5 L -12.5,0 L 5,5 L 0,0 z"
         style="fill-rule:evenodd;stroke:#000000;stroke-width:1pt;marker-start:none"
         transform="matrix(-0.8,0,0,-0.8,-10,0)" />
    </marker>
    <inkscape:perspective
       sodipodi:type="inkscape:persp3d"
       inkscape:vp_x="0 : 526.18109 : 1"
       inkscape:vp_y="0 : 1000 : 0"
       inkscape:vp_z="744.09448 : 526.18109 : 1"
       inkscape:persp3d-origin="372.04724 : 350.78739 : 1"
       id="perspective10" />
  </defs>
  <sodipodi:namedview
     id="base"
     pagecolor="#ffffff"
     bordercolor="#666666"
     borderopacity="1.0"
     gridtolerance="10000"
     guidetolerance="10"
     objecttolerance="10"
     inkscape:pageopacity="0.0"
     inkscape:pageshadow="2"
     inkscape:zoom="1"
     inkscape:cx="255"
     inkscape:cy="284.59566"
     inkscape:document-units="px"
     inkscape:current-layer="layer1"
     showgrid="false"
     showguides="true"
     inkscape:guide-bbox="true"
     inkscape:window-width="842"
     inkscape:window-height="713"
     inkscape:window-x="0"
     inkscape:window-y="0" />
  <metadata
     id="metadata7">
    <rdf:RDF>
      <cc:Work
         rdf:about="">
        <dc:format>image/svg+xml</dc:format>
        <dc:type
           rdf:resource="http://purl.org/dc/dcmitype/StillImage" />
      </cc:Work>
    </rdf:RDF>
  </metadata>
  <g
     inkscape:label="Layer 1"
     inkscape:groupmode="layer"
     id="layer1">
    <path
       sodipodi:type="arc"
       style="fill:#eaeaea;fill-opacity:1;fill-rule:nonzero;stroke:none;stroke-width:1.12496865000000001;stroke-linecap:round;stroke-linejoin:round;marker:none;marker-start:none;marker-mid:none;marker-end:none;stroke-miterlimit:4;stroke-dasharray:none;stroke-dashoffset:0;stroke-opacity:0.36904764000000001;visibility:visible;display:inline;overflow:visible;enable-background:accumulate;-inkscape-font-specification:Verdana Bold;font-family:Verdana;font-weight:bold;font-style:normal;font-stretch:normal;font-variant:normal"
       id="path2383"
       sodipodi:cx="204.5"
       sodipodi:cy="499.36218"
       sodipodi:rx="33.5"
       sodipodi:ry="33"
       d="M 238,499.36218 A 33.5,33 0 1 1 171,499.36218 A 33.5,33 0 1 1 238,499.36218 z"
       transform="matrix(1.7910448,0,0,1.8181818,-132.87975,-440.3757)" />
    <rect
       style="fill:#eaeaea;fill-opacity:1;fill-rule:nonzero;stroke:none;stroke-width:1;stroke-linecap:round;stroke-linejoin:round;marker:none;marker-start:none;marker-mid:none;marker-end:none;stroke-miterlimit:4;stroke-dasharray:none;stroke-dashoffset:0;stroke-opacity:0.36904764000000001;visibility:visible;display:inline;overflow:visible;enable-background:accumulate;-inkscape-font-specification:Verdana Bold;font-family:Verdana;font-weight:bold;font-style:normal;font-stretch:normal;font-variant:normal"
       id="rect3155"
       width="188"
       height="82"
       x="15.5"
       y="227.94446" />
    <rect
       style="fill:#eaeaea;fill-opacity:1;fill-rule:nonzero;stroke:none;stroke-width:1;stroke-linecap:round;stroke-linejoin:round;marker:none;marker-start:none;marker-mid:none;marker-end:none;stroke-miterlimit:4;stroke-dasharray:none;stroke-dashoffset:0;stroke-opacity:0.36904764000000001;visibility:visible;display:inline;overflow:visible;enable-background:accumulate;-inkscape-font-specification:Verdana Bold;font-family:Verdana;font-weight:bold;font-style:normal;font-stretch:normal;font-variant:normal"
       id="rect3157"
       width="254"
       height="82"
       x="230.5"
       y="227.94446" />
    <rect
       style="fill:#eaeaea;fill-opacity:1;fill-rule:nonzero;stroke:none;stroke-width:1;stroke-linecap:round;stroke-linejoin:round;marker:none;marker-start:none;marker-mid:none;marker-end:none;stroke-miterlimit:4;stroke-dasharray:none;stroke-dashoffset:0;stroke-opacity:0.36904764000000001;visibility:visible;display:inline;overflow:visible;enable-background:accumulate;-inkscape-font-specification:Verdana Bold;font-family:Verdana;font-weight:bold;font-style:normal;font-stretch:normal;font-variant:normal"
       id="rect3159"
       width="204"
       height="82"
       x="130.5"
       y="22.444471" />
    <text
       xml:space="preserve"
       style="font-size:26px;font-style:normal;font-variant:normal;font-weight:bold;font-stretch:normal;fill:#333333;fill-opacity:1;stroke:none;stroke-width:1px;stroke-linecap:butt;stroke-linejoin:miter;stroke-opacity:1;font-family:Verdana;-inkscape-font-specification:Verdana Bold"
       x="176.27318"
       y="73.441475"
       id="text3161"><tspan
         sodipodi:role="line"
         id="tspan3163"
         x="176.27318"
         y="73.441475">MODEL</tspan></text>
    <text
       xml:space="preserve"
       style="font-size:26px;font-style:normal;font-variant:normal;font-weight:bold;font-stretch:normal;fill:#333333;fill-opacity:1;stroke:none;stroke-width:1px;stroke-linecap:butt;stroke-linejoin:miter;stroke-opacity:1;font-family:Verdana;-inkscape-font-specification:Verdana Bold"
       x="69.17334"
       y="279.20145"
       id="text3165"><tspan
         sodipodi:role="line"
         id="tspan3167"
         x="69.17334"
         y="279.20145">VIEW</tspan></text>
    <text
       xml:space="preserve"
       style="font-size:26px;font-style:normal;font-variant:normal;font-weight:bold;font-stretch:normal;fill:#333333;fill-opacity:1;stroke:none;stroke-width:1px;stroke-linecap:butt;stroke-linejoin:miter;stroke-opacity:1;font-family:Verdana;-inkscape-font-specification:Verdana Bold"
       x="259.49854"
       y="278.94147"
       id="text3169"><tspan
         sodipodi:role="line"
         id="tspan3171"
         x="259.49854"
         y="278.94147">CONTROLLER</tspan></text>
    <text
       xml:space="preserve"
       style="font-size:20px;font-style:normal;font-variant:normal;font-weight:bold;font-stretch:normal;fill:#333333;fill-opacity:1;stroke:none;stroke-width:1px;stroke-linecap:butt;stroke-linejoin:miter;stroke-opacity:1;font-family:Verdana;-inkscape-font-specification:Verdana Bold"
       x="-81.661507"
       y="503.71768"
       id="text3173"
       transform="matrix(0.6769594,-0.7360204,0.7360204,0.6769594,0,0)"><tspan
         sodipodi:role="line"
         id="tspan3175"
         x="-81.661507"
         y="503.71768">USES</tspan></text>
    <text
       xml:space="preserve"
       style="font-size:20px;font-style:normal;font-variant:normal;font-weight:bold;font-stretch:normal;fill:#333333;fill-opacity:1;stroke:none;stroke-width:1px;stroke-linecap:butt;stroke-linejoin:miter;stroke-opacity:1;font-family:Verdana;-inkscape-font-specification:Verdana Bold"
       x="289.5"
       y="166.82448"
       id="text3177"><tspan
         sodipodi:role="line"
         id="tspan3179"
         x="289.5"
         y="166.82448">MANIPULATES</tspan></text>
    <path
       style="font-style:normal;font-variant:normal;font-weight:bold;font-stretch:normal;fill:none;fill-rule:evenodd;stroke:#000000;stroke-width:2px;stroke-linecap:butt;stroke-linejoin:miter;stroke-opacity:1;font-family:Verdana;-inkscape-font-specification:Verdana Bold"
       d="M 288.80074,419.01135 L 305.87756,400.67065"
       id="path3181" />
    <path
       style="font-style:normal;font-variant:normal;font-weight:bold;font-stretch:normal;fill:none;fill-rule:evenodd;stroke:#000000;stroke-width:2px;stroke-linecap:butt;stroke-linejoin:miter;marker-end:url(#Arrow2Mend);stroke-opacity:1;font-family:Verdana;-inkscape-font-specification:Verdana Bold"
       d="M 352.16308,348.60357 L 375.60713,322.57199"
       id="path3183"
       sodipodi:nodetypes="cc" />
    <path
       style="font-style:normal;font-variant:normal;font-weight:bold;font-stretch:normal;fill:none;fill-rule:evenodd;stroke:#000000;stroke-width:2px;stroke-linecap:butt;stroke-linejoin:miter;stroke-opacity:1;font-family:Verdana;-inkscape-font-specification:Verdana Bold"
       d="M 99.715109,321.32805 L 113.36941,339.21018"
       id="path3185"
       sodipodi:nodetypes="cc" />
    <path
       style="fill:none;fill-rule:evenodd;stroke:#000000;stroke-width:2px;stroke-linecap:butt;stroke-linejoin:miter;marker-end:url(#Arrow2Mend);stroke-opacity:1;-inkscape-font-specification:Verdana Bold;font-family:Verdana;font-weight:bold;font-style:normal;font-stretch:normal;font-variant:normal"
       d="M 153.33318,393.30583 L 176.23372,422.93853"
       id="path3187"
       sodipodi:nodetypes="cc" />
    <text
       xml:space="preserve"
       style="font-size:20px;font-style:normal;font-variant:normal;font-weight:bold;font-stretch:normal;fill:#333333;fill-opacity:1;stroke:none;stroke-width:1px;stroke-linecap:butt;stroke-linejoin:miter;stroke-opacity:1;font-family:Verdana;-inkscape-font-specification:Verdana Bold"
       x="350.35611"
       y="102.61337"
       id="text3189"
       transform="matrix(0.563762,0.8259373,-0.8259373,0.563762,0,0)"><tspan
         sodipodi:role="line"
         id="tspan3191"
         x="350.35611"
         y="102.61337">SEES</tspan></text>
    <path
       style="fill:none;fill-rule:evenodd;stroke:#000000;stroke-width:2px;stroke-linecap:butt;stroke-linejoin:miter;stroke-opacity:1;-inkscape-font-specification:Verdana Bold;font-family:Verdana;font-weight:bold;font-style:normal;font-stretch:normal;font-variant:normal"
       d="M 117.5,65.444466 C 107.7032,66.633386 93.84264,72.210746 91.5,99.444466 L 91.5,141.44447"
       id="path3193"
       sodipodi:nodetypes="ccc" />
    <path
       style="fill:none;fill-rule:evenodd;stroke:#000000;stroke-width:2px;stroke-linecap:butt;stroke-linejoin:miter;marker-start:url(#Arrow2Mstart);marker-end:none;stroke-opacity:1;-inkscape-font-specification:Verdana Bold;font-family:Verdana;font-weight:bold;font-style:normal;font-stretch:normal;font-variant:normal"
       d="M 344.5,67.444466 C 370.2968,66.633386 388.15736,74.210746 390.5,101.44447 L 390.5,143.44447"
       id="path3195"
       sodipodi:nodetypes="ccc" />
    <text
       xml:space="preserve"
       style="font-size:20px;font-style:normal;font-variant:normal;font-weight:bold;font-stretch:normal;fill:#333333;fill-opacity:1;stroke:none;stroke-width:1px;stroke-linecap:butt;stroke-linejoin:miter;stroke-opacity:1;font-family:Verdana;-inkscape-font-specification:Verdana Bold"
       x="39.167664"
       y="166.82448"
       id="text3197"><tspan
         sodipodi:role="line"
         id="tspan3199"
         x="39.167664"
         y="166.82448">UPDATES</tspan></text>
    <text
       xml:space="preserve"
       style="font-size:26px;font-style:normal;font-variant:normal;font-weight:bold;font-stretch:normal;fill:#333333;fill-opacity:1;stroke:none;stroke-width:1px;stroke-linecap:butt;stroke-linejoin:miter;stroke-opacity:1;font-family:Verdana;-inkscape-font-specification:Verdana Bold"
       x="194.14006"
       y="475.70148"
       id="text3201"><tspan
         sodipodi:role="line"
         id="tspan3203"
         x="194.14006"
         y="475.70148">USER</tspan></text>
    <path
       style="fill:none;fill-rule:evenodd;stroke:#000000;stroke-width:2px;stroke-linecap:butt;stroke-linejoin:miter;marker-end:url(#Arrow2Mend);stroke-opacity:1;-inkscape-font-specification:Verdana Bold;font-family:Verdana;font-weight:bold;font-style:normal;font-stretch:normal;font-variant:normal"
       d="M 93.5,175.44447 L 93.5,219.44447"
       id="path8205"
       sodipodi:nodetypes="cc" />
    <path
       style="font-style:normal;font-variant:normal;font-weight:bold;font-stretch:normal;fill:none;fill-rule:evenodd;stroke:#000000;stroke-width:2.07019662999999987px;stroke-linecap:butt;stroke-linejoin:miter;stroke-opacity:1;font-family:Verdana;-inkscape-font-specification:Verdana Bold"
       d="M 388.5,218.37304 L 388.5,175.5159"
       id="path8207"
       sodipodi:nodetypes="cc" />
  </g>
</svg>

<svg xmlns="http://www.w3.org/2000/svg" width="500" height="550" version="1"><defs><marker orient="auto" id="b" overflow="visible"><path d="M5.231 2.42l-6.556-2.411 6.556-2.411c-1.047 1.423-1.041 3.37 0 4.821z" font-size="12" fill-rule="evenodd"/></marker><marker orient="auto" id="a" overflow="visible"><path d="M-5.231-2.42l6.556 2.411-6.556 2.411c1.047-1.423 1.041-3.37 0-4.821z" font-size="12" fill-rule="evenodd"/></marker><marker orient="auto" overflow="visible"><path d="M0 0l5-5-17.5 5 17.5 5-5-5z" transform="matrix(-.2 0 0 -.2 -1.2 0)" fill-rule="evenodd" stroke="#000" stroke-width="1pt"/></marker><marker orient="auto" overflow="visible"><path d="M0 0l5-5-17.5 5 17.5 5-5-5z" transform="matrix(-.8 0 0 -.8 -10 0)" fill-rule="evenodd" stroke="#000" stroke-width="1pt"/></marker></defs><g font-family="Verdana" font-weight="bold"><path style="-inkscape-font-specification:Verdana Bold" d="M238 499.362a33.5 33 0 1 1-67 0 33.5 33 0 1 1 67 0z" transform="matrix(1.791 0 0 1.818 -132.88 -440.376)" fill="#eaeaea" overflow="visible" enable-background="accumulate"/><rect style="-inkscape-font-specification:Verdana Bold" width="188" height="82" x="15.5" y="227.944" fill="#eaeaea" overflow="visible" enable-background="accumulate"/><rect style="-inkscape-font-specification:Verdana Bold" width="254" height="82" x="230.5" y="227.944" fill="#eaeaea" overflow="visible" enable-background="accumulate"/><rect style="-inkscape-font-specification:Verdana Bold" width="204" height="82" x="130.5" y="22.444" fill="#eaeaea" overflow="visible" enable-background="accumulate"/><text style="-inkscape-font-specification:Verdana Bold" x="176.273" y="73.441" font-size="26" fill="#333"><tspan x="176.273" y="73.441">MODEL</tspan></text><text style="-inkscape-font-specification:Verdana Bold" x="69.173" y="279.201" font-size="26" fill="#333"><tspan x="69.173" y="279.201">VIEW</tspan></text><text style="-inkscape-font-specification:Verdana Bold" x="259.499" y="278.941" font-size="26" fill="#333"><tspan x="259.499" y="278.941">CONTROLLER</tspan></text><text style="-inkscape-font-specification:Verdana Bold" x="-81.662" y="503.718" transform="rotate(-47.394)" font-size="20" fill="#333"><tspan x="-81.662" y="503.718">USES</tspan></text><text style="-inkscape-font-specification:Verdana Bold" x="289.5" y="166.824" font-size="20" fill="#333"><tspan x="289.5" y="166.824">MANIPULATES</tspan></text><path style="-inkscape-font-specification:Verdana Bold" d="M288.801 419.011l17.077-18.341" stroke="#000" stroke-width="2" fill="none"/><path style="-inkscape-font-specification:Verdana Bold" d="M352.163 348.604l23.444-26.032" stroke="#000" stroke-width="2" marker-end="url(#a)" fill="none"/><path style="-inkscape-font-specification:Verdana Bold" d="M99.715 321.328l13.654 17.882" stroke="#000" stroke-width="2" fill="none"/><path style="-inkscape-font-specification:Verdana Bold" d="M153.333 393.306l22.901 29.633" stroke="#000" stroke-width="2" marker-end="url(#a)" fill="none"/><text style="-inkscape-font-specification:Verdana Bold" x="350.356" y="102.613" transform="rotate(55.684)" font-size="20" fill="#333"><tspan x="350.356" y="102.613">SEES</tspan></text><path style="-inkscape-font-specification:Verdana Bold" d="M117.5 65.444c-9.797 1.189-23.657 6.766-26 34v42" stroke="#000" stroke-width="2" fill="none"/><path style="-inkscape-font-specification:Verdana Bold" d="M344.5 67.444c25.797-.811 43.657 6.766 46 34v42" stroke="#000" stroke-width="2" marker-start="url(#b)" fill="none"/><text style="-inkscape-font-specification:Verdana Bold" x="39.168" y="166.824" font-size="20" fill="#333"><tspan x="39.168" y="166.824">UPDATES</tspan></text><text style="-inkscape-font-specification:Verdana Bold" x="194.14" y="475.701" font-size="26" fill="#333"><tspan x="194.14" y="475.701">USER</tspan></text><path style="-inkscape-font-specification:Verdana Bold" d="M93.5 175.444v44" stroke="#000" stroke-width="2" marker-end="url(#a)" fill="none"/><path style="-inkscape-font-specification:Verdana Bold" d="M388.5 218.373v-42.857" stroke="#000" stroke-width="2.07" fill="none"/></g></svg>
